X:908
T:Maighdeanan Na - Airidh #1
C:Joe Buchanan's Scottish Tome - Page 522.1
I:522 1
Z:Carl Allison
R:Waltz
L:1/4
M:3/4
K:F
E | F4 A | B3 | A3 | G2 E | D3 | E3 | D2 A, | C3 |
D3 | F2 E | F3- | F3 | F2 A | B3 | A3 | G2 E |
D3 | E3 | D2 A, | C3 | D3 | F2 E | F3- | F3 |
F2 A | c3 | c3 | d2 B | G3 | G3 | A2 c | d3 |
d3 | c2 A | c3 | (B2 A) | G2 F | F3 | c3 | A2 F |
D3 | (E2 F) | A2 F | C3 | D3 | F2 E | F3- | F3 |]
